X:1
T:What if the Master Should Come?
T:What if the Master Should Come?
T:Clarence E. Hunter
T:Barney Elliott Warren, 1900
T:Public Domain Courtesy of the Cyber Hymnal™
C:Clarence E. Hunter
Z:Public Domain
Z:Courtesy of the Cyber Hymnal™
%%score ( 1 2 ) ( 3 4 )
L:1/8
Q:1/4=98
M:6/8
K:D
V:1 treble 
V:2 treble 
V:3 bass 
V:4 bass 
V:1
 [FA][FA][FA] [GB][FA][FA] | [FA]2 [DF] [FA]2 z | D[CE][DF] [DF][A,E][B,D] | [CE]3- [CE]2 z | %4
w: 1.~What if the Mas- ter should|come to- night?|Would you be rea- dy to|go? *|
w: 2.~What if the Mas- ter should|come to- night?|Would you not trem- ble with|fears? *|
w: 3.~What if the Mas- ter should|come to- night?|What if He’d say un- to|thee: *|
w: 4.~What if the Mas- ter should|come to- night?|Sum- mon you up to His|throne, *|
 [DF][FA][FA] [FA][EG][DF] | [DE]2 [DF] !fermata![DG]2 [DB] | [DA][DF][FA] [CG]2 [CA] | %7
w: Can you now say you have|done the right, Or|must you with shame say|
w: Or could you welc- ome that|bliss- ful sight, With-|out bit- ter sighs or|
w: “Are you in dark- ness or|in the light?” Then|what would your an- swer|
w: O- pen the books in His|judg- ment light, And|sen- tence to woe- ful|
 [DF]3- [DF]2 z ||"^Refrain" [Fd][Fd][Fd] [Fd][Ac][GB] | [FA]3- [FA]2 z | %10
w: no? *|||
w: tears? *|What if the Mas- ter should|come? *|
w: be? *|||
w: doom? *|||
 [FA][DF][FA] [EG][FA][EG] | [DF]3- [DF]2 z | [Fd][Fd][Fd] [Fd]2 [FA] | %13
w: |||
w: What if the Mas- ter should|come? *|Will you be rea- dy,|
w: |||
w: |||
 [DF][EG][FA] !fermata![GB]2 [Gd] | [Gc][Gc][Gc] [Gc][GB][Gc] | d3- [Fd]2 |] %16
w: |||
w: wait- ing to go? Oh,|what if the Mas- ter should|come? *|
w: |||
w: |||
V:2
 x6 | x6 | D x5 | x6 | x6 | x6 | x6 | x6 || x6 | x6 | x6 | x6 | x6 | x6 | x6 | FFG x2 |] %16
V:3
 [D,D][D,D][D,D] [D,D][D,D][D,D] | [D,D]2 [D,A,] [D,D]2 z | %2
w: ||
 [F,A,][E,A,][D,A,] [D,A,][C,A,][B,,^G,] | [A,,A,]3- [A,,A,]2 z | %4
w: ||
 [D,A,][D,D][D,D] [D,D][D,A,][=C,A,] | [B,,^G,]2 [A,,A,] !fermata![A,,B,]2 [^G,,=G,] | %6
w: ||
 [A,,F,][A,,A,][A,,A,] [A,,A,]2 [A,,A,] | [D,A,]3- [D,A,]2 z || %8
w: ||
 [D,A,][D,A,][D,A,] [D,A,][D,D][D,D] | [D,D][D,D][D,D] [D,D]2 z | %10
w: * * * * * the|Mas- ter should come?|
 [D,D][D,A,][D,A,] [A,,A,][A,,A,][A,,A,] | [D,A,][D,A,][D,A,] [D,A,]2 z | %12
w: * * * * * the|Mas- ter should come?|
 [D,A,][D,A,][D,A,] [D,A,]2 [D,D] | [F,A,][E,B,][D,D] !fermata![G,D]2 [G,B,] | %14
w: ||
 [A,E][A,E][A,E] [A,E][A,C][A,E] | DG,B, [D,A,]2 |] %16
w: * * * * * the|Mas- ter should come?|
V:4
 x6 | x6 | x6 | x6 | x6 | x6 | x6 | x6 || x6 | x6 | x6 | x6 | x6 | x6 | x6 | D,3- x2 |] %16

